X:1
T:Skyrim Theme
T:Skyrim Theme
T:Jeremy Soule
C:Jeremy Soule
%%score 1 2 3 4
L:1/8
Q:1/4=100
M:3/4
K:D
V:1 bass nm="Trombone" snm="Tbn."
V:2 bass nm="Trombone" snm="Tbn."
V:3 bass nm="Trombone" snm="Tbn."
V:4 bass nm="Trombone" snm="Tbn."
V:1
!pp! B,4- B,B, | B,6 | B,4- B,B, | B,6 | B,4- B,B, | B,6 | B,4- B,B, |!<(! B,6!<)! | %8
 !>!B,!mp!B, B,!>!B, B,B, | !>!B,B, B,!>!B, B,C/D/ | !>!B,B, B,!>!B, B,B, | %11
 !>!B,B, B,!>!B, B,C/D/ | !>!B,B, B,!>!B, B,B, | !>!B,B, B,!>!B, B,C/D/ | !>!B,B, B,!>!B, B,B, | %15
!<(! B,B, C/D/B, C/D/B,!<)! |!mp! B,6 | E6 | B,6 |!<(! A,6!<)! |!mf!!<(! [B,,B,]6!<)! | %21
!f!!<(! [E,E]6!<)! | [B,G]6 |!ff! [C-c]4 CD/C/ | D2 D/C/ D2 D/C/ | ED C B,2 B,/A,/ | %26
 B,2 B,/A,/ B,2 B,/A,/ | CD A, B,2 B,/C/ | DD D/E/ F2 C/D/ | ED C B,2 B,/A,/ | %30
 B,2 B,/A,/!<(! B,2 A,/B,/!<)! | CD A,!fff! !fermata![B,B]3 |!mp! FF/F/ F/F/E EE | DD/D/ D/D/C CC | %34
 FF/F/ F/F/E EE | DD/D/ D/D/C CC | FF/F/ F/F/E EE | DD/D/ D/D/C CC | FF/F/ F/F/E EE | %39
 DD/D/ D/D/C CC | B,B, B,B, B,B, | B,B, B,B, B,B, | B,B, B,B, B,B, | B,B, B,B, B,B, | %44
 B,B, B,B, B,B, | B,B, B,B, B,B, |!mf! B,6 |!<(! !fermata!G,6!<)! |!mf! F3 F3 | F3 F3 | F3 F3 | %51
 F6 |!>(! D3 C3!>)! |!mp! B,6 | C6 | A,3 C3 | D3 C3 | B,6 | E6 |!<(! F3 E3!<)! |!mf! B,3 C3 | D6 | %62
 C6 | A,3 C3 | B,3 C3 | D6 | F6 |!<(! A3 c3!<)! |!f! B,B,/B,/ B,/B,/B, B,/B,/B,/B,/ | %69
 B,B, B,B, B,B, | B,B,/B,/ B,/B,/B, B,/B,/B,/B,/ | B,B, B,B, B,B, | DD/D/ D/D/D D/D/D/D/ | %73
 CC CB, B,B, | DD/D/ D/D/D D/D/D/D/ |!<(! CC CB,!ff! B,C!<)! |!f! D4 DE | F4 FA | E4 DC | B,4 B,C | %80
 D4 DE | F4 FA |!<(! B4 Ac!<)! | [B,B]4!ff! B,C | D2 C2 B,2 | A,2 G,2 F,2 | E,4 D,F, | %87
!<(! E,4 z !>!D/C/!<)! |!fff! D2 D/C/ D2 C/D/ | ED C B,2 B,/A,/ | B,2 B,/A,/ B,2 A,/B,/ | %91
 CD A, B,2 B,/C/ | DD D/E/ F2 C/D/ | ED C B,2 B,/A,/ | B,2 B,/A,/ B,2 A,/B,/ | CD A, B,3 | %96
 !fermata![B,B]6 |] %97
V:2
!pp!!pp! B,4- B,B, | B,6 | B,4- B,B, | B,6 | B,4- B,B, | B,6 | B,4- B,B, |!<(! B,6!<)! | %8
!mf! !>!F, z z !>!G, z2 | !>!A, z z !>!E, z2 | !>!F, z z !>!G, z2 | !>!A, z z !>!E, z2 | %12
 !>!F, z z !>!G, z2 | !>!A, z z !>!E, z2 | !>!F, z z !>!G, z2 | %15
!<(! B,,B,, C,/D,/B,, C,/D,/B,,!<)! |!mp! F,6 | E,6 | D,6 |!<(! E,6!<)! |!mf!!<(! [F,F]6!<)! | %21
!f!!<(! [E,E]6!<)! | [D,D]6 |!ff! E,6 |!f! F, z2 F, z2 | E, z2 F, z2 | D, z2 B,, z2 | E, z2 F, z2 | %28
 F, z2 D, z2 | E, z2 F, z2 | D, z2!<(! B,, z2!<)! | E, z2!fff! !fermata![F,F]3 | %32
!mp! B,B,/B,/ B,/B,/G, G,G, | A,A,/A,/ A,/A,/A, A,A, | B,B,/B,/ B,/B,/G, G,G, | %35
 A,A,/A,/ A,/A,/A, A,A, | B,B,/B,/ B,/B,/G, G,G, | A,A,/A,/ A,/A,/A, A,A, | %38
 B,B,/B,/ B,/B,/G, G,G, | A,A,/A,/ A,/A,/A, A,A, | B,,6 | B,,6 | B,,6 | B,,6 | B,,6 | B,,6 | %46
!mf! F,6 |!<(! !fermata!E,6!<)! |!mf! B,3 B,3 | B,3 B,3 | B,3 B,3 | B,3 B,3 |!>(! D,3 C,3!>)! | %53
!mp! B,,6 | C,6 | C,3 C,3 | F,3 C,3 | B,,6 | A,6 |!<(! G,3 E,3!<)! |!mf! D,3 E,3 | F,6 | E,6 | %63
 C,3 E,3 | D,3 E,3 | F,6 | A,6 |!<(! C3 F3!<)! |!f! z2 z G, G,/G,/G,/G,/ | A, z A,E, E,E, | %70
 z2 z G, G,/G,/G,/G,/ | A, z A,E, E,E, | B,B,/B,/ B,/B,/B, B,/B,/B,/B,/ | A,A, A,F, B,,C, | %74
 B,B,/B,/ B,/B,/B, B,/B,/B,/B,/ |!<(! A,A, A,F,!ff! B,,C,!<)! |!f! F,4 F,G, | A,4 F,A, | C4 DC | %79
 ^G,4 B,C | F,4 F,G, | A,4 F,A, |!<(! D4 A,C!<)! | [B,,B,]4 z2 |!mf! F,3/2F,3/2 F,2 F, | %85
 D,3/2D,3/2 D,2 D, | B,,>B,, B,,B,, B,,B,, |!<(! C,>C, C,C, C,C,!<)! |!ff! C, z2 F, z2 | %89
 C, z2 F, z2 | C, z2 F, z2 | C, z2 F, z2 | C, z2 F, z2 | C, z2 F, z2 | C, z2 F, z2 | E, z2 F, z2 | %96
 !fermata!B,6 |] %97
V:3
!pp! B,,4- B,,B,, | B,,6 | B,,4- B,,B,, | B,,6 | B,,4- B,,B,, | B,,6 | B,,4- B,,B,, | %7
!<(! B,,6!<)! |!mf!!mf! !>!F, z z !>!D, z2 | !>!E, z z !>!E, z2 | !>!F, z z !>!D, z2 | %11
 !>!E, z z !>!E, z2 | !>!F, z z !>!D, z2 | !>!E, z z !>!E, z2 | !>!F, z z !>!E, z2 | %15
!<(! A,3 E,3!<)! |!mp! F,,6 | E,6 | B,,6 |!<(! C,6!<)! |!mf! [B,,B,]6 | [E,E]6 | [B,,B,]6 | %23
!ff! C,6 |!f! D, z2 D, z2 | C, z2 D, z2 | B,, z2 G,, z2 | D, z2 D, z2 | D, z2 B,, z2 | %29
 C, z2 D, z2 | B,, z2!<(! G,, z2!<)! | C, z2!fff! !fermata![D,D]3 | z4!f! B,,C, | D,4 D,E, | %34
 F,4 F,A, | E,4 D,C, | B,,4 B,,C, | D,4 F,A, |!<(! B,4 A,C!<)! |!ff! B,6 |!mf! CD ED B,2 | %41
 z E CC D2 | C D2 C D2 | z E CC DE | CD EC D2 | z E CC DE |!mf! F6 |!<(! !fermata!E6!<)! | %48
!f! B,2 B, B,2 B, | G,2 G, B,3 |!f! B,2 B, B,2 B, | G,2 G, B,3 |!>(! D,3 C,3!>)! |!mp! B,,6 | C,6 | %55
 A,,3 C,3 | D,3 C,3 | B,,6 | E,6 |!<(! F,3 E,3!<)! |!mf! B,,3 C,3 | D,6 | C,6 | A,,3 C,3 | %64
 B,,3 C,3 | D,6 | F,6 |!<(! A,3 C3!<)! |!f! B,3 G,3 | A,3 E,3 | B,3 G,3 | A,3 E,3 | B,3 G,3 | %73
 A,2 A, E,3 | B,3 G,3 |!<(! A,A, A,F, E,E,!<)! |!f! D,4 D,E, | F,4 F,A, | A,4 D,C, | E,4 B,,C, | %80
 D,4 D,E, | F,4 F,A, |!<(! B,4 F,C!<)! | [B,,B,]4 z2 |!mf! D,3/2D,3/2 D,2 D, | %85
 B,,3/2B,,3/2 B,,2 B,, | A,,>A,, A,,A,, A,,A,, |!<(! A,,>A,, A,,A,, A,,A,,!<)! |!ff! C, z2 F, z2 | %89
 C, z2 F, z2 | C, z2 F, z2 | C, z2 F, z2 | C, z2 F, z2 | C, z2 F, z2 | C, z2 F, z2 | C, z2 F, z2 | %96
 !fermata!B,,6 |] %97
V:4
!pp! B,,4- B,,B,, | B,,6 | B,,4- B,,B,, | B,,6 | B,,4- B,,B,, | B,,6 | B,,4- B,,B,, | %7
!<(! B,,6!<)! |!mf! !>!B,,3 !>!G,,3 | !>!A,,3 !>!E,,3 | !>!B,,3 !>!G,,3 | !>!A,,3 !>!E,,3 | %12
 !>!B,,3 !>!G,,3 | !>!A,,3 !>!E,,3 | !>!B,,3 !>!G,,3 |!<(! A,,3 E,,3!<)! | %16
!mp! B,,>B,, B,,B,, B,,B,, | B,,>B,, B,,B,, B,,B,, | G,,>G,, G,,G,, G,,G,, | %19
!<(! G,,>G,, G,,G,, G,,G,,!<)! |!mf!!<(! B,,>B,, B,,B,, B,,B,,!<)! | %21
!f!!<(! B,,>B,, B,,B,, B,,B,,!<)! | G,,>G,, G,,G,, G,,G,, |!ff! C,>C, C,C, C,C, | %24
!f! B,, B,,2 B,, B,,2 | A,, A,,2 A,, A,,2 | G,, G,,2 E,, E,,2 | A,, A,,2 B,, B,,2 | %28
 B,, B,,2 G,, G,,2 | A,, A,,2 B,, B,,2 | G,,!<(! G,,2 B,, B,,2!<)! | %31
 A,, A,,2!fff! !fermata![B,,B,]3 | z4!f! B,,C, | D,4 D,E, | F,4 F,A, | E,4 D,C, | B,,4 B,,C, | %37
 D,4 F,A, |!<(! B,4 A,C!<)! |!ff! B,6 |!mf! C,D, E,D, D,2 | z F, C,C, D,2 | C, D,2 C, D,2 | %43
 z E, C,C, D,E, | C,D, E,C, D,2 | z E, C,C, D,E, |!mf! F,,>F,, F,,F,, F,,F,, | %47
!<(!!<(! F,,>F,, F,,F,, F,,F,,!<)!!<)! |!f! B,,2 B,, B,,2 B,, | G,,2 G,, B,,3 | %50
!f! B,,2 B,, B,,2 B,, | G,,2 G,, B,,3 |!>(! B,,F, B,B,, F,B,!>)! |!mp! B,,F, B,B,, F,B, | %54
 B,,F, B,B,, F,B, | A,,E, A,B,, F,A, | B,,F, B,B,, F,B, | B,,F, B,B,, F,B, | A,,E, A,A,, E,A, | %59
!<(! A,,E, A,A,, E,A,!<)! |!mf! B,,>B,, B,,B,,>B,,B,, | B,,>B,, B,,B,, B,,B,, | %62
 B,,>B,, B,,B,, B,,B,, | B,,>B,, B,,B,, B,,B,, | B,,>B,, B,,B,,>B,,B,, | B,,>B,, B,,B,, B,,B,, | %66
 B,,>B,, B,,B,, B,,B,, | B,,B,, B,,B,, B,,B,, |!f! B,,3 G,,3 | A,,3 E,,3 | B,,3 G,,3 | A,,3 E,,3 | %72
 B,,3 G,,3 | A,,2 A,, E,,3 | B,,3 G,,3 |!<(! A,,A,, A,,E,, E,,E,,!<)! |!f! F,,4 F,,G,, | %77
 A,,4 F,,A,, | C,4 D,C, | ^G,,4 B,,C, | F,,4 F,,G,, | A,,4 F,,A,, |!<(! [B,,D,]4 A,,C,!<)! | %83
 [B,,B,]4 z2 |!mf! B,,3/2B,,3/2 B,,2 B,, | G,,3/2G,,3/2 G,,2 G,, | E,,>E,, E,,E,, E,,E,, | %87
!<(! E,,>E,, E,,E,, E,,E,,!<)! |!ff! A,, A,,2 B,, B,,2 | A,, A,,2 B,, B,,2 | A,, A,,2 B,, B,,2 | %91
 A,, A,,2 B,, B,,2 | A,, A,,2 B,, B,,2 | A,, A,,2 B,, B,,2 | A,, A,,2 B,, B,,2 | %95
 A,, A,,2 B,, B,,2 | !fermata!B,,6 |] %97

